img/char-1.svg

<svg width="84" height="77" viewBox="0 0 84 77" fill="none" xmlns="http://www.w3.org/2000/svg">
<path d="M0.917555 16.1391C1.72391 6.68954 9.80179 0 19.2856 0H65.5481C74.6494 0 82.3605 6.21371 83.1222 15.2831C83.6157 21.1589 84 28.8368 84 38.5C84 48.1632 83.6157 55.8411 83.1222 61.7169C82.3605 70.7863 74.6494 77 65.5481 77H19.2856C9.80179 77 1.72391 70.3105 0.917556 60.861C0.405089 54.8555 0 47.3191 0 38.5C0 29.6809 0.405089 22.1445 0.917555 16.1391Z" fill="#7BAFE4"/>
<path d="M23.6718 20.3282C23.3008 19.9573 22.6992 19.9573 22.3282 20.3282L16.2825 26.374C15.9115 26.745 15.9115 27.3465 16.2825 27.7175C16.6535 28.0885 17.255 28.0885 17.626 27.7175L23 22.3435L28.374 27.7175C28.745 28.0885 29.3465 28.0885 29.7175 27.7175C30.0885 27.3465 30.0885 26.745 29.7175 26.374L23.6718 20.3282ZM22.3283 59.6718C22.6992 60.0428 23.3008 60.0428 23.6718 59.6718L29.7175 53.626C30.0885 53.255 30.0885 52.6535 29.7175 52.2825C29.3465 51.9115 28.745 51.9115 28.374 52.2825L23 57.6565L17.626 52.2825C17.255 51.9115 16.6535 51.9115 16.2825 52.2825C15.9115 52.6535 15.9115 53.255 16.2825 53.626L22.3283 59.6718ZM22.05 21L22.05 59L23.95 59L23.95 21L22.05 21Z" fill="white"/>
</svg>

<svg width="84" height="77" fill="none" xmlns="http://www.w3.org/2000/svg"><path d="M.918 16.14C1.724 6.69 9.802 0 19.286 0h46.262c9.101 0 16.813 6.214 17.574 15.283C83.616 21.16 84 28.837 84 38.5c0 9.663-.384 17.341-.878 23.217C82.361 70.787 74.65 77 65.548 77H19.286C9.802 77 1.724 70.31.918 60.861.405 54.856 0 47.319 0 38.5c0-8.82.405-16.355.918-22.36z" fill="#7BAFE4"/><path d="M23.672 20.328a.95.95 0 00-1.344 0l-6.046 6.046a.95.95 0 101.344 1.344L23 22.343l5.374 5.375a.95.95 0 101.344-1.344l-6.046-6.046zm-1.344 39.344a.95.95 0 001.344 0l6.046-6.046a.95.95 0 10-1.344-1.343L23 57.655l-5.374-5.373a.95.95 0 10-1.344 1.343l6.046 6.046zM22.05 21v38h1.9V21h-1.9z" fill="#fff"/></svg>
